X: 21
T:For a' that. JMP.021
M:2/4
L:1/8
Q:200
C:"22...a quick march"
S:John Miller MS. Perth, 1799.(for the fife)
R:March
O:Scotland
A:Perth
H:1799
Z:vmp.C.  Graebe
K:G major
g| fgaf | geef | gfaA | B2 B f | gfaf | geef | gedB | A2A :|!
|: B |dedA | Beef | dedA | B2 B c | dedA | Beef | gedB | A2A :|]
